icons/Note.svg

<svg width="24" height="24" viewBox="0 0 24 24" fill="none" xmlns="http://www.w3.org/2000/svg">
<path fill-rule="evenodd" clip-rule="evenodd" d="M3.25,5c0,-0.9665 0.7835,-1.75 1.75,-1.75h14c0.9665,0 1.75,0.7835 1.75,1.75v8c0,0.1989 -0.079,0.3897 -0.2197,0.5303l-7,7c-0.1406,0.1407 -0.3314,0.2197 -0.5303,0.2197h-8c-0.9665,0 -1.75,-0.7835 -1.75,-1.75zM5,4.75c-0.13807,0 -0.25,0.11193 -0.25,0.25v14c0,0.1381 0.11193,0.25 0.25,0.25h7.25v-5.25c0,-0.9665 0.7835,-1.75 1.75,-1.75h5.25v-7.25c0,-0.13807 -0.1119,-0.25 -0.25,-0.25zM18.1893,13.75h-4.1893c-0.1381,0 -0.25,0.1119 -0.25,0.25v4.1893z" fill="#002B51"/>
</svg>

<svg width="24" height="24" viewBox="0 0 24 24" fill="none" xmlns="http://www.w3.org/2000/svg">
<path fill-rule="evenodd" clip-rule="evenodd" d="M3.25 5C3.25 4.0335 4.0335 3.25 5 3.25H19C19.9665 3.25 20.75 4.0335 20.75 5V13C20.75 13.1989 20.671 13.3897 20.5303 13.5303L13.5303 20.5303C13.3897 20.671 13.1989 20.75 13 20.75H5C4.0335 20.75 3.25 19.9665 3.25 19V5ZM5 4.75C4.86193 4.75 4.75 4.86193 4.75 5V19C4.75 19.1381 4.86193 19.25 5 19.25H12.25V14C12.25 13.0335 13.0335 12.25 14 12.25H19.25V5C19.25 4.86193 19.1381 4.75 19 4.75H5ZM18.1893 13.75H14C13.8619 13.75 13.75 13.8619 13.75 14V18.1893L18.1893 13.75Z" fill="#002B51"/>
</svg>
